packages/icons/src/assets/raw/outlined/SVG/outlined-content-menu.svg

<svg xmlns="http://www.w3.org/2000/svg" viewBox="0 0 24 24">
  <path d="M22 19.47H2a.5.5 0 01-.5-.5.5.5 0 01.5-.5h20a.5.5 0 01.5.5.5.5 0 01-.5.5z"/>
  <path d="M20.69 18.62a.5.5 0 01-.5-.5v-1.36A8.27 8.27 0 0012 8.57a8.27 8.27 0 00-8.19 8.19v1.36a.5.5 0 01-1 0v-1.36A9.28 9.28 0 0112 7.57a9.28 9.28 0 019.19 9.19v1.36a.5.5 0 01-.5.5z"/>
  <path d="M10.48 8.71a.51.51 0 01-.5-.5v-.69a2.06 2.06 0 012.07-2 2 2 0 012 2v.64a.51.51 0 01-.5.5.5.5 0 01-.5-.5v-.64a1 1 0 00-1-1 1 1 0 00-1 1v.68a.5.5 0 01-.57.51z"/>
</svg>

<svg xmlns="http://www.w3.org/2000/svg" viewBox="0 0 24 24">
  <title>outlined-content-menu</title>
  <g>
    <rect width="24" height="24" style="opacity: 0"/>
    <g>
      <path d="M22,19.47H2a.5.5,0,0,1-.5-.5.5.5,0,0,1,.5-.5H22a.5.5,0,0,1,.5.5A.5.5,0,0,1,22,19.47Z"/>
      <path d="M20.69,18.62a.5.5,0,0,1-.5-.5V16.76A8.27,8.27,0,0,0,12,8.57a8.27,8.27,0,0,0-8.19,8.19v1.36a.5.5,0,0,1-1,0V16.76A9.28,9.28,0,0,1,12,7.57a9.28,9.28,0,0,1,9.19,9.19v1.36A.5.5,0,0,1,20.69,18.62Z"/>
      <path d="M10.48,8.71a.51.51,0,0,1-.5-.5V7.52a2.06,2.06,0,0,1,2.07-2,2,2,0,0,1,2,2v.64a.51.51,0,0,1-.5.5.5.5,0,0,1-.5-.5V7.52a1,1,0,0,0-1-1,1,1,0,0,0-1,1v.68A.5.5,0,0,1,10.48,8.71Z"/>
    </g>
  </g>
</svg>
